X: 35
T:Hunting the Squirrel
R:jig
C:Traditional (from William Preece, Shropshire)
S:John Kirkpatrick
A:Shropshire
D:Facing the Music John Kirkpatrick & Sue Harri
M:6/8
L:1/8
K:C
c2e g2g | (a2a) g2f | (e2e) c2e | d2B (G2G) | c2e g2g | (a2a) g2f | e2 c
 d2 B |(c2c c2c) |
efg (a2a) | efg (a2a) | efg a2b | (c'2c' c') ba | g2e cde |(g2g) e2d | c
de d2B | (c2c c2c) ||
